!!!ONB: MCCC : IJH0464_04 : Extracted Monophonic Melody
!!!COM: Haydn, Joseph
!!!OPR: String Quartet in G major
!!!OMV: 4
!!!SCT: Hob.III:66 ; Op.64 No.4
!!!ODT: 1790///
**kern
*thru
*k[f#]
*G:
*clefF
*M6/8
8d
=1
8g
8f#
8g
4a
8dd
=2
8g
8f#
8g
4a
8dd
=3
8g
8f#
8g
4cc
8ee
=4
8dd
8ff#
8gg
8bb
4r
=5
8dd
16ee
16ff#
16gg
16aa
4bb
8aa
=6
8gg
8ff#
8ee
8dd
8cc
8b
=7
4a
8b
8dd
8cc
8b
=8
4a
8b
8a
8r
8d
=9
8g
8f#
8g
4a
8dd
=10
8g
8f#
8g
4a
8dd
=11
8g
8f#
8g
4cc
8ee
=12
8dd
8ff#
8gg
8bb
4r
=13
8dd
16ee
16ff#
32gg
32aa
32bb
32ccc
4ddd
8ccc
=14
8bb
8aa
8gg
8ff#
8ee
8dd
=15
4cc
8b
8a
8cc
8f#
=16
4.a
8g
8r
8b
=17
4dd
8cc
8b
8a
8g
=18
8f#
8g
8a
8g
8r
8dd
=19
4ff
8ee
8dd
8cc
8b
=20
8a
8b
8cc
4b
8dd
=21
4gg
8ff#
4aa
8gg#
=22
4bb
8aa
4ccc
8bb
=23
8aa
8aa
8aa
8aa
8bb
8gg
=24
8ff#
8aa
8ccc#
8ddd
8aa
8ff#
=25
8gg
8ff#
8gg
8ee
8aa
8gg
=26
8ff#
8r
8dd
8dd
8cc#
8gg
=27
8ff#
8r
8dd
8dd
8cc#
8gg
=28
4ff#
8aa
8aa
8gg
8ff#
=29
8ee
8dd#
8ee
4ff#
8bb
=30
8ee
8dd#
8ee
4ff#
8bb
=31
8ee
8dd#
8ee
4ff#
8bb
=32
8ee
8dd#
8ee
4gg
8ff#
=33
4.ee
8ff
8ee
8ff
=34
8ee
8aa
8aa
8gg#
8bb
8ddd
=35
8ccc#
8eee
8aa
8gg#
8bb
8dd
=36
8cc#
8ee
8a
8g#
8b
8d
=37
8A
8c#
8e
8a
8cc#
8ee
=38
4aa
4.r
8a
=39
4dd
8dd
8dd
8cc#
8dd
=40
8dd
8b
8b
4b
8b
=41
8a
8cc#
8dd
8ee
8ff#
8gg
=42
4.gg
8ff#
8r
8a
=43
4dd
8dd
8dd
8cc#
8dd
=44
8dd
8b
8b
4b
8b
=45
8a
8cc#
8dd
8ee
8ff#
8gg
=46
8ff#
8dd
8a
8gg
8ee
8a
=47
8ff#
8dd
8a
8gg
8ee
8a
=48
8ff#
8dd
8aa
8aa
8aa
8aa
=49
8aa
8gg#
8gg
8ff#
8ff
8ee
=50
2.dd
=51
2a
8b
8g
=52
8f#
4r
4ee
8ee#
=53
8ff#
4r
4gg
8gg#
=54
8aa
8ddd
8ccc#
8ccc
8bb
8aa#
=55
2.bb[
=56
8bb]
8ccc
8bb
8aa
8gg
8ff#
=57
8r
8aa
8gg
8r
8bb
8gg
=58
8r
8gg
8ff#
8r
8aa
8ff#
=59
8ff#
8ee
8bb
8bb
8aa
8cc#
=60
8dd
8a
8a
8a
8a
8a
=61
8a
8g
8g
8g
8b
8g
=62
8f#
8f#
8f#
8f#
8f#
8f#
=63
8f#
8e
8e
8e
8a
8c#
=64
4d
8r
8e
8a
8c#
=65
4d
8r
8e
8a
8c#
=66
4d
4.r
8dd
=67
8gg
8ff#
8gg
4aa
8ddd
=68
8gg
4.r
8G
8A
=69
8B-
8c
8d
8e-
8f
8g
=70
4a-
4.r
8b-
=71
8ee-
8dd
8ee-
4ff
8bb-
=72
8ee-
4.r
8cc
8b-
=73
8a-
8g
8f
8e-
8d
8c
=74
4B
4.r
8g
=75
8cc
8b
8cc
4dd
8gg
=76
4cc
4.r
8c
=77
8c
8B
8B
8B
8B-
8B-
=78
4A
4.r
8a
=79
8dd
8cc#
8dd
4ee
8aa
=80
4dd
4.r
8d
=81
8d
8c#
8c#
8c#
8c
8c
=82
4B
2r
=83
2.r
=84
2.r
=85
2.r
=86
2.r
=87
2.r
=88
2r
8r
8ee
=89
8aa
8gg#
8aa
4bb
8eee
=90
4aa
8ddd
4gg
8ccc
=91
2.ff#[
=92
4ff#]
4ee
8dd#
8ff#[
=93
8ff#]
8ee
4gg
8ff#
8aa[
=94
8aa]
8gg
4bb
8aa#
8ccc#[
=95
8ccc#]
8bb
4ddd
8ccc#
8eee[
=96
8eee]
8ddd
4ccc
8bb
8ddd[
=97
8ddd]
8ccc
4bb
8aa
8gg
=98
4ff#
8dd
4.cc#
=99
4.dd
4.cc#
=100
4.dd
4.cc#
=101
8dd
8g#
8a
8r
8a#
8b
=102
8r
8b
8cc
8r
8cc#
8dd
=103
8r
8dd#
8ee
8r
8dd#
8ee
=104
4.r
4ee
8r
=105
4.r
4ee
8r
=106
2r
8r
8d
=107
8g
8f#
8g
4a
8dd
=108
8g
8f#
8g
4a
8dd
=109
8g
8f#
8g
4cc
8ee
=110
8dd
8ff#
8gg
8bb
4r
=111
8dd
16ee
16ff#
16gg
16aa
4bb
8aa
=112
8gg
8ff#
8ee
8dd
8cc
8b
=113
4a
8b
8dd
8cc
8b
=114
4a
8b
8a
4r
=115
4r
8g
8g
8f#
8cc
=116
8b
8r
8g
8g
8f#
8cc
=117
4b
8dd
8dd
8cc
8b
=118
8a
8g#
8a
4b
8ee
=119
8a
8g#
8a
4b
8ee
=120
8a
8g#
8a
4b
8ee
=121
8a
8g#
8a
4cc
8b
=122
4.a
8b-
8a
8b-
=123
8a
8dd
8dd
8cc#
8ee
8gg
=124
8ff#
8f#
8a
8dd
8ff#
8aa
=125
4ddd
4.r
8dd
=126
4gg
8gg
8gg
8ff#
8gg
=127
8gg
8ee
8ee
4ee
8ee
=128
8dd
8ff#
8gg
8aa
8bb
8ccc
=129
4.ccc
8bb
8r
8dd
=130
4gg
8gg
8gg
8ff#
8gg
=131
8gg
8ee
8ee
4ee
8ee
=132
8dd
8ff#
8gg
8aa
8bb
8ccc
=133
8bb
8gg
8dd
8ccc
8aa
8dd
=134
8bb
8gg
8dd
8ccc
8aa
8dd
=135
8bb
8dd
8ddd
8ddd
8ddd
8ddd
=136
8ddd
8ccc#
8ccc
8bb
8bb-
8aa
=137
2.gg
=138
2dd
8ee
8cc
=139
4b
8r
4aa
8aa#
=140
4bb
8r
4.ff#
=141
8gg
4r
4dd
8dd#
=142
8ee
4r
4.b
=143
8cc
4r
4.a
=144
8b
8gg
8ff#
8ff
8ee
8dd#
=145
8r
8dd#
8ee
8r
8aa
8gg#
=146
8r
8bb
8aa
8r
8ccc
8bb
=147
8r
8bb
8aa
8r
8aa
8gg
=148
4ff#
2r
=149
2r
8r
8dd
=150
8gg
8ff#
8gg
4aa
8ddd
=151
4gg
8ccc
4ff#
8bb
=152
4ee
8aa
4dd
8gg
=153
8gg
8ff#
8ee
8ee
8dd
8cc
=154
4b
2r
=155
2.r
=156
2r
8r
8B
=157
8A
8c
8e
8a
8cc
8ee
=158
8c#
8e
8g
8b-
8cc#
8ee
=159
8d
8g
8b
8dd
8gg
8bb
=160
4ddd
8r
4ff#
8r
=161
8gg
8dd
8dd
8dd
8dd
8dd
=162
8dd
8cc
8cc
8cc
8ee
8cc
=163
8b
8b
8b
8b
8b
8b
=164
8b
8a
8a
8a
8dd
8f#
=165
4g
8r
8a
8cc
8a#
=166
4b
8r
8cc
8ee
8cc#
=167
8dd
2r
8r
=168
2.r
=169
2r
8r
8dd
=170
8gg
8ff#
8gg
4aa
8ddd
=171
8gg
8ff#
8gg
4aa
8ddd
=172
8bb
8ggg
8ggg
8ggg
8ggg
8ggg
=173
8ggg
8ddd
8bbb
8bbb
8bbb
8bbb
=174
8bbb
8ggg
8dddd
8dddd
8dddd
8dddd
=175
4dddd
4.r
8B
=176
8c
8B
8c
4A
8d
=177
8G
4r
8a
8dd
8f#
=178
8g
4r
8a
8dd
8f#
=179
4g
2r
==
*-
